app/assets/images/icons/active/image-line.svg

<?xml version="1.0" encoding="UTF-8" standalone="no"?>
<svg width="32px" height="232px" viewBox="0 0 32 232" version="1.1" xmlns="http://www.w3.org/2000/svg" xmlns:xlink="http://www.w3.org/1999/xlink" xmlns:sketch="http://www.bohemiancoding.com/sketch/ns">
    <title>image-line</title>
    <description>Created with Sketch (http://www.bohemiancoding.com/sketch)</description>
    <defs></defs>
    <g id="Categories" stroke="none" stroke-width="1" fill="none" fill-rule="evenodd" sketch:type="MSPage">
        <path d="M28.4507182,189 L3.55225359,189 C1.59187717,189 0,187.393 0,185.414 L0,167.586 C0,165.609 1.59187717,164 3.55225359,164 L28.4507182,164 C30.4081228,164 32,165.609 32,167.586 L32,185.414 C32,187.393 30.4081228,189 28.4507182,189 Z M3.55225359,165.834 C2.59237246,165.834 1.81475978,166.62 1.81475978,167.586 L1.81475978,185.414 C1.81475978,186.383 2.59237246,187.166 3.55225359,187.166 L28.4507182,187.166 C29.4076275,187.166 30.1852402,186.383 30.1852402,185.414 L30.1852402,167.586 C30.1852402,166.62 29.4076275,165.834 28.4507182,165.834 L3.55225359,165.834 Z M19.9970282,169.564 C16.205052,169.564 13.1292719,172.67 13.1292719,176.5 C13.1292719,180.332 16.205052,183.437 19.9970282,183.437 C23.7929668,183.437 26.8677563,180.332 26.8677563,176.5 C26.8677563,172.67 23.7929668,169.564 19.9970282,169.564 Z M19.9970282,171.399 C22.7875186,171.399 25.0529965,173.688 25.0529965,176.5 C25.0529965,179.315 22.7875186,181.602 19.9970282,181.602 C17.213472,181.602 14.9460129,179.315 14.9460129,176.5 C14.9460129,173.688 17.213472,171.399 19.9970282,171.399 Z M10.9737494,168.707 L5.71272907,168.707 C5.01238237,168.707 4.44576523,169.256 4.44576523,169.936 C4.44576523,170.614 5.01238237,171.164 5.71272907,171.164 L10.9737494,171.164 C11.6731055,171.164 12.2407132,170.614 12.2407132,169.936 C12.2407132,169.256 11.6731055,168.707 10.9737494,168.707 Z M10.9737494,168.707" id="image-line--lp-blue" fill="#1D4F8D" sketch:type="MSShapeGroup"></path>
        <path d="M28.4507182,149 L3.55225359,149 C1.59187717,149 0,147.393 0,145.414 L0,127.586 C0,125.609 1.59187717,124 3.55225359,124 L28.4507182,124 C30.4081228,124 32,125.609 32,127.586 L32,145.414 C32,147.393 30.4081228,149 28.4507182,149 Z M3.55225359,125.834 C2.59237246,125.834 1.81475978,126.62 1.81475978,127.586 L1.81475978,145.414 C1.81475978,146.383 2.59237246,147.166 3.55225359,147.166 L28.4507182,147.166 C29.4076275,147.166 30.1852402,146.383 30.1852402,145.414 L30.1852402,127.586 C30.1852402,126.62 29.4076275,125.834 28.4507182,125.834 L3.55225359,125.834 Z M19.9970282,129.564 C16.205052,129.564 13.1292719,132.67 13.1292719,136.5 C13.1292719,140.332 16.205052,143.437 19.9970282,143.437 C23.7929668,143.437 26.8677563,140.332 26.8677563,136.5 C26.8677563,132.67 23.7929668,129.564 19.9970282,129.564 Z M19.9970282,131.399 C22.7875186,131.399 25.0529965,133.688 25.0529965,136.5 C25.0529965,139.315 22.7875186,141.602 19.9970282,141.602 C17.213472,141.602 14.9460129,139.315 14.9460129,136.5 C14.9460129,133.688 17.213472,131.399 19.9970282,131.399 Z M10.9737494,128.707 L5.71272907,128.707 C5.01238237,128.707 4.44576523,129.256 4.44576523,129.936 C4.44576523,130.614 5.01238237,131.164 5.71272907,131.164 L10.9737494,131.164 C11.6731055,131.164 12.2407132,130.614 12.2407132,129.936 C12.2407132,129.256 11.6731055,128.707 10.9737494,128.707 Z M10.9737494,128.707" id="image-line--white" fill="#FFFFFF" sketch:type="MSShapeGroup"></path>
        <path d="M28.4507182,109 L3.55225359,109 C1.59187717,109 0,107.393 0,105.414 L0,87.586 C0,85.609 1.59187717,84 3.55225359,84 L28.4507182,84 C30.4081228,84 32,85.609 32,87.586 L32,105.414 C32,107.393 30.4081228,109 28.4507182,109 Z M3.55225359,85.834 C2.59237246,85.834 1.81475978,86.62 1.81475978,87.586 L1.81475978,105.414 C1.81475978,106.383 2.59237246,107.166 3.55225359,107.166 L28.4507182,107.166 C29.4076275,107.166 30.1852402,106.383 30.1852402,105.414 L30.1852402,87.586 C30.1852402,86.62 29.4076275,85.834 28.4507182,85.834 L3.55225359,85.834 Z M19.9970282,89.564 C16.205052,89.564 13.1292719,92.67 13.1292719,96.5 C13.1292719,100.332 16.205052,103.437 19.9970282,103.437 C23.7929668,103.437 26.8677563,100.332 26.8677563,96.5 C26.8677563,92.67 23.7929668,89.564 19.9970282,89.564 Z M19.9970282,91.399 C22.7875186,91.399 25.0529965,93.688 25.0529965,96.5 C25.0529965,99.315 22.7875186,101.602 19.9970282,101.602 C17.213472,101.602 14.9460129,99.315 14.9460129,96.5 C14.9460129,93.688 17.213472,91.399 19.9970282,91.399 Z M10.9737494,88.707 L5.71272907,88.707 C5.01238237,88.707 4.44576523,89.256 4.44576523,89.936 C4.44576523,90.614 5.01238237,91.164 5.71272907,91.164 L10.9737494,91.164 C11.6731055,91.164 12.2407132,90.614 12.2407132,89.936 C12.2407132,89.256 11.6731055,88.707 10.9737494,88.707 Z M10.9737494,88.707" id="image-line--subdued-grey" fill="#E5EDF5" sketch:type="MSShapeGroup"></path>
        <path d="M28.4507182,69 L3.55225359,69 C1.59187717,69 0,67.393 0,65.414 L0,47.586 C0,45.609 1.59187717,44 3.55225359,44 L28.4507182,44 C30.4081228,44 32,45.609 32,47.586 L32,65.414 C32,67.393 30.4081228,69 28.4507182,69 Z M3.55225359,45.834 C2.59237246,45.834 1.81475978,46.62 1.81475978,47.586 L1.81475978,65.414 C1.81475978,66.383 2.59237246,67.166 3.55225359,67.166 L28.4507182,67.166 C29.4076275,67.166 30.1852402,66.383 30.1852402,65.414 L30.1852402,47.586 C30.1852402,46.62 29.4076275,45.834 28.4507182,45.834 L3.55225359,45.834 Z M19.9970282,49.564 C16.205052,49.564 13.1292719,52.67 13.1292719,56.5 C13.1292719,60.332 16.205052,63.437 19.9970282,63.437 C23.7929668,63.437 26.8677563,60.332 26.8677563,56.5 C26.8677563,52.67 23.7929668,49.564 19.9970282,49.564 Z M19.9970282,51.399 C22.7875186,51.399 25.0529965,53.688 25.0529965,56.5 C25.0529965,59.315 22.7875186,61.602 19.9970282,61.602 C17.213472,61.602 14.9460129,59.315 14.9460129,56.5 C14.9460129,53.688 17.213472,51.399 19.9970282,51.399 Z M10.9737494,48.707 L5.71272907,48.707 C5.01238237,48.707 4.44576523,49.256 4.44576523,49.936 C4.44576523,50.614 5.01238237,51.164 5.71272907,51.164 L10.9737494,51.164 C11.6731055,51.164 12.2407132,50.614 12.2407132,49.936 C12.2407132,49.256 11.6731055,48.707 10.9737494,48.707 Z M10.9737494,48.707" id="image-line--body-grey" fill="#67737B" sketch:type="MSShapeGroup"></path>
        <path d="M28.4507182,29 L3.55225359,29 C1.59187717,29 0,27.393 0,25.414 L0,7.586 C0,5.609 1.59187717,4 3.55225359,4 L28.4507182,4 C30.4081228,4 32,5.609 32,7.586 L32,25.414 C32,27.393 30.4081228,29 28.4507182,29 Z M3.55225359,5.834 C2.59237246,5.834 1.81475978,6.62 1.81475978,7.586 L1.81475978,25.414 C1.81475978,26.383 2.59237246,27.166 3.55225359,27.166 L28.4507182,27.166 C29.4076275,27.166 30.1852402,26.383 30.1852402,25.414 L30.1852402,7.586 C30.1852402,6.62 29.4076275,5.834 28.4507182,5.834 L3.55225359,5.834 Z M19.9970282,9.564 C16.205052,9.564 13.1292719,12.67 13.1292719,16.5 C13.1292719,20.332 16.205052,23.437 19.9970282,23.437 C23.7929668,23.437 26.8677563,20.332 26.8677563,16.5 C26.8677563,12.67 23.7929668,9.564 19.9970282,9.564 Z M19.9970282,11.399 C22.7875186,11.399 25.0529965,13.688 25.0529965,16.5 C25.0529965,19.315 22.7875186,21.602 19.9970282,21.602 C17.213472,21.602 14.9460129,19.315 14.9460129,16.5 C14.9460129,13.688 17.213472,11.399 19.9970282,11.399 Z M10.9737494,8.707 L5.71272907,8.707 C5.01238237,8.707 4.44576523,9.256 4.44576523,9.936 C4.44576523,10.614 5.01238237,11.164 5.71272907,11.164 L10.9737494,11.164 C11.6731055,11.164 12.2407132,10.614 12.2407132,9.936 C12.2407132,9.256 11.6731055,8.707 10.9737494,8.707 Z M10.9737494,8.707" id="image-line--title-grey" fill="#3A434E" sketch:type="MSShapeGroup"></path>
    </g>
</svg>

<svg width="32" height="232" viewBox="0 0 32 232" xmlns="http://www.w3.org/2000/svg" xmlns:sketch="http://www.bohemiancoding.com/sketch/ns"><title>image-line</title><g sketch:type="MSPage" fill="none"><path d="M28.451 189h-24.898c-1.96 0-3.552-1.607-3.552-3.586v-17.828c0-1.977 1.592-3.586 3.552-3.586h24.898c1.957 0 3.549 1.609 3.549 3.586v17.828c0 1.979-1.592 3.586-3.549 3.586zm-24.898-23.166c-.96 0-1.737.786-1.737 1.752v17.828c0 .969.778 1.752 1.737 1.752h24.898c.957 0 1.735-.783 1.735-1.752v-17.828c0-.966-.778-1.752-1.735-1.752h-24.898zm16.445 3.73c-3.792 0-6.868 3.106-6.868 6.936 0 3.832 3.076 6.937 6.868 6.937 3.796 0 6.871-3.105 6.871-6.937 0-3.83-3.075-6.936-6.871-6.936zm0 1.835c2.79 0 5.056 2.289 5.056 5.101 0 2.815-2.265 5.102-5.056 5.102-2.784 0-5.051-2.287-5.051-5.102 0-2.812 2.267-5.101 5.051-5.101zm-9.023-2.692h-5.261c-.7 0-1.267.549-1.267 1.229 0 .678.567 1.228 1.267 1.228h5.261c.699 0 1.267-.55 1.267-1.228 0-.68-.568-1.229-1.267-1.229zm0 0" fill="#1D4F8D" sketch:type="MSShapeGroup"/><path d="M28.451 149h-24.898c-1.96 0-3.552-1.607-3.552-3.586v-17.828c0-1.977 1.592-3.586 3.552-3.586h24.898c1.957 0 3.549 1.609 3.549 3.586v17.828c0 1.979-1.592 3.586-3.549 3.586zm-24.898-23.166c-.96 0-1.737.786-1.737 1.752v17.828c0 .969.778 1.752 1.737 1.752h24.898c.957 0 1.735-.783 1.735-1.752v-17.828c0-.966-.778-1.752-1.735-1.752h-24.898zm16.445 3.73c-3.792 0-6.868 3.106-6.868 6.936 0 3.832 3.076 6.937 6.868 6.937 3.796 0 6.871-3.105 6.871-6.937 0-3.83-3.075-6.936-6.871-6.936zm0 1.835c2.79 0 5.056 2.289 5.056 5.101 0 2.815-2.265 5.102-5.056 5.102-2.784 0-5.051-2.287-5.051-5.102 0-2.812 2.267-5.101 5.051-5.101zm-9.023-2.692h-5.261c-.7 0-1.267.549-1.267 1.229 0 .678.567 1.228 1.267 1.228h5.261c.699 0 1.267-.55 1.267-1.228 0-.68-.568-1.229-1.267-1.229zm0 0" fill="#fff" sketch:type="MSShapeGroup"/><path d="M28.451 109h-24.898c-1.96 0-3.552-1.607-3.552-3.586v-17.828c0-1.977 1.592-3.586 3.552-3.586h24.898c1.957 0 3.549 1.609 3.549 3.586v17.828c0 1.979-1.592 3.586-3.549 3.586zm-24.898-23.166c-.96 0-1.737.786-1.737 1.752v17.828c0 .969.778 1.752 1.737 1.752h24.898c.957 0 1.735-.783 1.735-1.752v-17.828c0-.966-.778-1.752-1.735-1.752h-24.898zm16.445 3.73c-3.792 0-6.868 3.106-6.868 6.936 0 3.832 3.076 6.937 6.868 6.937 3.796 0 6.871-3.105 6.871-6.937 0-3.83-3.075-6.936-6.871-6.936zm0 1.835c2.79 0 5.056 2.289 5.056 5.101 0 2.815-2.265 5.102-5.056 5.102-2.784 0-5.051-2.287-5.051-5.102 0-2.812 2.267-5.101 5.051-5.101zm-9.023-2.692h-5.261c-.7 0-1.267.549-1.267 1.229 0 .678.567 1.228 1.267 1.228h5.261c.699 0 1.267-.55 1.267-1.228 0-.68-.568-1.229-1.267-1.229zm0 0" fill="#E5EDF5" sketch:type="MSShapeGroup"/><path d="M28.451 69h-24.898c-1.96 0-3.552-1.607-3.552-3.586v-17.828c0-1.977 1.592-3.586 3.552-3.586h24.898c1.957 0 3.549 1.609 3.549 3.586v17.828c0 1.979-1.592 3.586-3.549 3.586zm-24.898-23.166c-.96 0-1.737.786-1.737 1.752v17.828c0 .969.778 1.752 1.737 1.752h24.898c.957 0 1.735-.783 1.735-1.752v-17.828c0-.966-.778-1.752-1.735-1.752h-24.898zm16.445 3.73c-3.792 0-6.868 3.106-6.868 6.936 0 3.832 3.076 6.937 6.868 6.937 3.796 0 6.871-3.105 6.871-6.937 0-3.83-3.075-6.936-6.871-6.936zm0 1.835c2.79 0 5.056 2.289 5.056 5.101 0 2.815-2.265 5.102-5.056 5.102-2.784 0-5.051-2.287-5.051-5.102 0-2.812 2.267-5.101 5.051-5.101zm-9.023-2.692h-5.261c-.7 0-1.267.549-1.267 1.229 0 .678.567 1.228 1.267 1.228h5.261c.699 0 1.267-.55 1.267-1.228 0-.68-.568-1.229-1.267-1.229zm0 0" fill="#67737B" sketch:type="MSShapeGroup"/><path d="M28.451 29h-24.898c-1.96 0-3.552-1.607-3.552-3.586v-17.828c0-1.977 1.592-3.586 3.552-3.586h24.898c1.957 0 3.549 1.609 3.549 3.586v17.828c0 1.979-1.592 3.586-3.549 3.586zm-24.898-23.166c-.96 0-1.737.786-1.737 1.752v17.828c0 .969.778 1.752 1.737 1.752h24.898c.957 0 1.735-.783 1.735-1.752v-17.828c0-.966-.778-1.752-1.735-1.752h-24.898zm16.445 3.73c-3.792 0-6.868 3.106-6.868 6.936 0 3.832 3.076 6.937 6.868 6.937 3.796 0 6.871-3.105 6.871-6.937 0-3.83-3.075-6.936-6.871-6.936zm0 1.835c2.79 0 5.056 2.289 5.056 5.101 0 2.815-2.265 5.102-5.056 5.102-2.784 0-5.051-2.287-5.051-5.102 0-2.812 2.267-5.101 5.051-5.101zm-9.023-2.692h-5.261c-.7 0-1.267.549-1.267 1.229 0 .678.567 1.228 1.267 1.228h5.261c.699 0 1.267-.55 1.267-1.228 0-.68-.568-1.229-1.267-1.229zm0 0" fill="#3A434E" sketch:type="MSShapeGroup"/></g></svg>
